packages/axiom-materials/src/icon_svgs/format-bold.svg

<svg height="16" viewBox="0 0 16 16" width="16" xmlns="http://www.w3.org/2000/svg"><path d="m0 10v-10h3.77079482c1.30622958 0 2.29697753.23236947 2.97227357.69711539.67529605.46474591 1.012939 1.14582884 1.012939 2.04326923 0 .48992918-.13555009.92147249-.40665434 1.29464285-.27110425.37317037-.64817996.64674822-1.13123845.82074176.55206684.12820577.98705941.38690282 1.30499076.7760989.31793135.38919609.47689464.8653818.47689464 1.42857143 0 .96154327-.33024932 1.68955797-.99075786 2.18406593-.66050854.49450797-1.60196554.74633696-2.82439926.75549451zm2.2181146-4.3543956v2.69917582h1.90018485c.52249183 0 .93037438-.1156124 1.22365988-.34684066.29328551-.23122826.43992607-.5505932.43992607-.9581044 0-.91575549-.51016126-1.38049443-1.53049908-1.39423076zm0-1.45604396h1.64140481c1.11892118-.01831511 1.67837338-.43268826 1.67837338-1.24313187 0-.45329897-.14171146-.77953197-.42513863-.97870879s-.73074248-.29876374-1.34195934-.29876374h-1.55268022z" fill-rule="evenodd" transform="translate(4 3)"/></svg>

<?xml version="1.0" encoding="UTF-8"?>
<svg width="16px" height="16px" viewBox="0 0 16 16" version="1.1" xmlns="http://www.w3.org/2000/svg" xmlns:xlink="http://www.w3.org/1999/xlink">
    <!-- Generator: Sketch 51.3 (57544) - http://www.bohemiancoding.com/sketch -->
    <title>format-bold</title>
    <g id="format-bold" stroke="none" stroke-width="1" fill="none" fill-rule="evenodd">
        <g transform="translate(4.000000, 3.000000)" fill="#000000">
            <path d="M0,10 L0,0 L3.77079482,0 C5.0770244,0 6.06777235,0.232369471 6.74306839,0.697115385 C7.41836444,1.1618613 7.75600739,1.84294423 7.75600739,2.74038462 C7.75600739,3.2303138 7.6204573,3.66185711 7.34935305,4.03502747 C7.0782488,4.40819784 6.70117309,4.68177569 6.2181146,4.85576923 C6.77018144,4.983975 7.20517401,5.24267205 7.52310536,5.63186813 C7.84103671,6.02106422 8,6.49724993 8,7.06043956 C8,8.02198283 7.66975068,8.74999753 7.00924214,9.24450549 C6.3487336,9.73901346 5.4072766,9.99084245 4.18484288,10 L0,10 Z M2.2181146,5.6456044 L2.2181146,8.34478022 L4.11829945,8.34478022 C4.64079128,8.34478022 5.04867383,8.22916782 5.34195933,7.99793956 C5.63524484,7.7667113 5.7818854,7.44734636 5.7818854,7.03983516 C5.7818854,6.12407967 5.27172414,5.65934073 4.25138632,5.6456044 L2.2181146,5.6456044 Z M2.2181146,4.18956044 L3.85951941,4.18956044 C4.97844059,4.17124533 5.53789279,3.75687218 5.53789279,2.94642857 C5.53789279,2.4931296 5.39618133,2.1668966 5.11275416,1.96771978 C4.82932699,1.76854296 4.38201168,1.66895604 3.77079482,1.66895604 L2.2181146,1.66895604 L2.2181146,4.18956044 Z"></path>
        </g>
    </g>
</svg>
